lib/flags/s/620.svg

<svg xmlns="http://www.w3.org/2000/svg" fill="none" viewBox="0 0 16 12"><mask id="620_svg__a" width="16" height="12" x="0" y="0" mask-type="alpha" maskUnits="userSpaceOnUse"><path fill="#fff" d="M0 0H16V12H0z"/></mask><g mask="url(#620_svg__a)"><path fill="#EF0000" fill-rule="evenodd" d="M4 0H16V12H4V0Z" clip-rule="evenodd"/><path fill="#2F8D00" fill-rule="evenodd" d="M0 0H6V12H0V0Z" clip-rule="evenodd"/><mask id="620_svg__b" width="8" height="8" x="2" y="2" mask-type="alpha" maskUnits="userSpaceOnUse"><path fill="#fff" fill-rule="evenodd" d="M5.95239 9.90366C3.82215 9.90366 2.09525 8.15596 2.09525 6.00005C2.09525 3.84414 3.82215 2.09644 5.95239 2.09644C8.08263 2.09644 9.80953 3.84414 9.80953 6.00005C9.80953 8.15596 8.08263 9.90366 5.95239 9.90366Z" clip-rule="evenodd"/></mask><g fill="#FFE017" mask="url(#620_svg__b)"><path fill-rule="evenodd" d="M5.71429 2H6.21429V3.3494H5.71429V2zM5.71429 8.74707H6.21429V10.0001H5.71429V8.74707z" clip-rule="evenodd"/><path d="M2.15725 6.20201L2.01746 5.84337C3.56005 5.22753 4.72433 4.83037 5.51432 4.65138C6.67338 4.38878 7.94692 4.19449 9.33502 4.06836L9.36909 4.45236C7.99691 4.57704 6.7397 4.76884 5.59755 5.02761C4.83107 5.20127 3.68296 5.59291 2.15725 6.20201Z"/><path d="M9.57042 3.83204 9.45698 4.20009C8.29112 3.83204 7.34141 3.67383 6.61139 3.72283L6.58618 3.33814C7.36998 3.28552 8.36354 3.45104 9.57042 3.83204zM9.97383 5.88991 9.75833 6.20784C9.16399 5.7952 8.43177 5.58793 7.55667 5.58793V5.20239C8.50536 5.20239 9.31275 5.43093 9.97383 5.88991z"/><path d="M9.65101 6.00537L9.7495 6.3778C8.46818 6.72487 7.26521 6.92178 6.14049 6.96815C5.00801 7.01484 3.68808 6.81723 2.17957 6.37681L2.28516 6.00637C3.75701 6.43609 5.03733 6.62777 6.12498 6.58293C7.22039 6.53777 8.39577 6.34538 9.65101 6.00537Z"/><path d="M9.50587 7.81811 8.9037 8.43545C7.75935 7.29217 6.75189 6.47468 5.88751 5.9835 5.00835 5.48392 3.86186 4.97663 2.4498 4.46368L2.73937 3.64722C4.19307 4.17529 5.38174 4.70124 6.30715 5.22711 7.24734 5.76136 8.31151 6.62486 9.50587 7.81811zM2.72915 8.1676 2.50122 7.85868C2.53305 7.83463 2.58984 7.79451 2.66809 7.74368 2.79729 7.65974 2.94076 7.57594 3.09512 7.49764 3.52028 7.28197 3.94675 7.14731 4.3535 7.13494 4.3734 7.13434 4.39321 7.13403 4.41293 7.13403V7.51958C4.39704 7.51958 4.38105 7.51982 4.36495 7.52031 4.02216 7.53073 3.64573 7.64959 3.26583 7.84231 3.12423 7.91414 2.99229 7.9912 2.87389 8.06812 2.83267 8.0949 2.7962 8.11966 2.76496 8.14173 2.74674 8.1546 2.73465 8.16345 2.72915 8.1676z"/><path d="M2.9061 8.30127 3.00203 7.92816C4.27209 8.26263 5.25123 8.4293 5.93458 8.4293 6.61537 8.4293 7.62867 8.2327 8.96788 7.83813L9.07437 8.20831C7.70347 8.61221 6.65907 8.81485 5.93458 8.81485 5.21264 8.81485 4.20477 8.64328 2.9061 8.30127zM2.41122 4.84717 3.01476 4.2312 3.89842 5.11802 3.29488 5.73399 2.41122 4.84717z"/><path d="M7.41797 7.92404L7.86689 7.18506L9.2687 8.05728L8.81978 8.79626L7.41797 7.92404Z"/></g><path fill="#F9E813" fill-rule="evenodd" d="M2.09525 6.00005C2.09525 8.15596 3.82215 9.90366 5.95239 9.90366C8.08263 9.90366 9.80953 8.15596 9.80953 6.00005C9.80953 3.84414 8.08263 2.09644 5.95239 2.09644C3.82215 2.09644 2.09525 3.84414 2.09525 6.00005ZM9.33334 6.04824C9.33334 7.91137 7.84096 9.42174 6.00001 9.42174C4.15906 9.42174 2.66667 7.91137 2.66667 6.04824C2.66667 4.18511 4.15906 2.67475 6.00001 2.67475C7.84096 2.67475 9.33334 4.18511 9.33334 6.04824Z" clip-rule="evenodd"/><path fill="#fff" d="M3.82834 3.59253V6.72288C4.03441 7.96192 4.72864 8.58144 5.91103 8.58144C7.09343 8.58144 7.78766 7.96192 7.99373 6.72288V3.59253H3.82834Z"/><path fill="#C51918" d="M3.04263 3H8.57945V6.71137L8.57482 6.73706C8.30735 8.21984 7.35917 9 5.81104 9C4.26291 9 3.31473 8.21984 3.04727 6.73706L3.04263 6.71137V3Z"/><path fill="#F9E813" fill-rule="evenodd" d="M4.52381 3.95312H3.62381V4.85312H4.52381V3.95312zM8.02381 3.95312H7.12381V4.85312H8.02381V3.95312zM3.62381 5.95312H4.52381V6.85312H3.62381V5.95312zM7.1736 5.96729H8.0736V6.86729H7.1736V5.96729zM7.18722 7.42475H6.28722V8.32475H7.18722V7.42475zM4.32428 7.42065H5.22428V8.32065H4.32428V7.42065z" clip-rule="evenodd"/><path fill="#F7FCFF" d="M4.42612 4.35522H7.39598V6.57567C7.39598 6.57567 7.17559 7.72232 5.91105 7.72232C4.6465 7.72232 4.42612 6.57567 4.42612 6.57567V4.35522Z"/><path fill="#013399" d="M5.61905 4.60229H6.27922V5.08303C6.27922 5.08303 6.23023 5.33129 5.94913 5.33129 5.66804 5.33129 5.61905 5.08303 5.61905 5.08303V4.60229zM5.61905 5.6626H6.27922V6.14333C6.27922 6.14333 6.23023 6.39159 5.94913 6.39159 5.66804 6.39159 5.61905 6.14333 5.61905 6.14333V5.6626zM6.4762 5.6626H7.13636V6.14333C7.13636 6.14333 7.08737 6.39159 6.80628 6.39159 6.52519 6.39159 6.4762 6.14333 6.4762 6.14333V5.6626zM4.7619 5.6626H5.42207V6.14333C5.42207 6.14333 5.37308 6.39159 5.09198 6.39159 4.81089 6.39159 4.7619 6.14333 4.7619 6.14333V5.6626zM5.61905 6.7229H6.27922V7.20364C6.27922 7.20364 6.23023 7.45189 5.94913 7.45189 5.66804 7.45189 5.61905 7.20364 5.61905 7.20364V6.7229z"/></g></svg>

<svg xmlns="http://www.w3.org/2000/svg" fill="none" viewBox="0 0 16 12"><mask id="620_svg__a" width="16" height="12" x="0" y="0" maskUnits="userSpaceOnUse"><path fill="#fff" d="M0 0h16v12H0z"/></mask><g mask="url(#620_svg__a)"><path fill="#EF0000" fill-rule="evenodd" d="M4 0h12v12H4V0z" clip-rule="evenodd"/><path fill="#2F8D00" fill-rule="evenodd" d="M0 0h6v12H0V0z" clip-rule="evenodd"/><mask id="620_svg__b" width="8" height="8" x="2" y="2" maskUnits="userSpaceOnUse"><path fill="#fff" fill-rule="evenodd" d="M5.952 9.904c-2.13 0-3.857-1.748-3.857-3.904 0-2.156 1.727-3.904 3.857-3.904S9.81 3.844 9.81 6c0 2.156-1.726 3.904-3.857 3.904z" clip-rule="evenodd"/></mask><g fill="#FFE017" mask="url(#620_svg__b)"><path fill-rule="evenodd" d="M5.714 2h.5v1.35h-.5V2zm0 6.747h.5V10h-.5V8.747z" clip-rule="evenodd"/><path d="M2.157 6.202l-.14-.359C3.56 5.227 4.724 4.83 5.514 4.651a29.368 29.368 0 013.821-.583l.034.384c-1.372.125-2.63.317-3.771.575-.767.174-1.915.566-3.44 1.175z"/><path d="M9.57 3.832l-.113.368c-1.166-.368-2.116-.526-2.846-.477l-.025-.385c.784-.053 1.778.113 2.984.494zm.404 2.058l-.216.318c-.594-.413-1.326-.62-2.201-.62v-.386c.948 0 1.756.229 2.417.688z"/><path d="M9.651 6.005l.098.373c-1.28.347-2.484.544-3.609.59-1.132.047-2.452-.15-3.96-.591l.105-.37c1.472.429 2.752.62 3.84.576 1.095-.045 2.27-.238 3.526-.578z"/><path d="M9.506 7.818l-.602.617c-1.145-1.143-2.152-1.96-3.017-2.452-.879-.5-2.025-1.007-3.437-1.52l.29-.816c1.453.528 2.642 1.054 3.567 1.58.94.534 2.004 1.398 3.199 2.59zm-6.776.35l-.229-.31a4.64 4.64 0 01.594-.361c.425-.215.852-.35 1.259-.362h.059v.385h-.048c-.343.01-.72.13-1.1.322a4.264 4.264 0 00-.536.326z"/><path d="M2.906 8.301l.096-.373c1.27.335 2.25.501 2.932.501.681 0 1.695-.196 3.034-.59l.106.37c-1.37.403-2.415.606-3.14.606-.721 0-1.73-.172-3.028-.514zm-.495-3.454l.604-.616.883.887-.603.616-.884-.887z"/><path d="M7.418 7.924l.449-.74 1.402.873-.45.74-1.401-.873z"/></g><path fill="#F9E813" fill-rule="evenodd" d="M2.095 6c0 2.156 1.727 3.904 3.857 3.904S9.81 8.156 9.81 6c0-2.156-1.726-3.904-3.857-3.904-2.13 0-3.857 1.748-3.857 3.904zm7.238.048c0 1.863-1.492 3.374-3.333 3.374-1.841 0-3.333-1.51-3.333-3.374 0-1.863 1.492-3.373 3.333-3.373 1.84 0 3.333 1.51 3.333 3.373z" clip-rule="evenodd"/><path fill="#fff" d="M3.828 3.593v3.13c.206 1.239.9 1.859 2.083 1.859 1.182 0 1.877-.62 2.083-1.859v-3.13H3.828z"/><path fill="#C51918" d="M3.043 3h5.536v3.711l-.004.026C8.307 8.22 7.359 9 5.81 9c-1.548 0-2.496-.78-2.764-2.263l-.004-.026V3z"/><path fill="#F9E813" fill-rule="evenodd" d="M4.524 3.953h-.9v.9h.9v-.9zm3.5 0h-.9v.9h.9v-.9zm-4.4 2h.9v.9h-.9v-.9zm3.55.014h.9v.9h-.9v-.9zm.013 1.458h-.9v.9h.9v-.9zM4.324 7.42h.9v.9h-.9v-.9z" clip-rule="evenodd"/><path fill="#F7FCFF" d="M4.426 4.355h2.97v2.22s-.22 1.147-1.485 1.147c-1.265 0-1.485-1.146-1.485-1.146v-2.22z"/><path fill="#013399" d="M5.619 4.602h.66v.481s-.049.248-.33.248-.33-.248-.33-.248v-.48zm0 1.061h.66v.48s-.049.249-.33.249-.33-.249-.33-.249v-.48zm.857 0h.66v.48s-.049.249-.33.249c-.28 0-.33-.249-.33-.249v-.48zm-1.714 0h.66v.48s-.049.249-.33.249-.33-.249-.33-.249v-.48zm.857 1.06h.66v.48s-.049.249-.33.249-.33-.248-.33-.248v-.481z"/></g></svg>
